app/images/icons/blog-user.svg

<?xml version="1.0" encoding="UTF-8"?>
<svg xmlns="http://www.w3.org/2000/svg" xmlns:xlink="http://www.w3.org/1999/xlink" width="12px" height="14px" viewBox="0 0 12 13" version="1.1">
<g id="surface1">
<path style=" stroke:none;fill-rule:nonzero;fill:rgb(0%,0%,0%);fill-opacity:1;" d="M 7.285156 7.71875 L 4.714844 7.71875 C 2.109375 7.71875 0 9.71875 0 12.1875 C 0 12.636719 0.382812 13 0.855469 13 L 11.144531 13 C 11.617188 13 12 12.636719 12 12.1875 C 12 9.71875 9.890625 7.71875 7.285156 7.71875 Z M 1.3125 11.78125 C 1.523438 10.179688 2.96875 8.9375 4.714844 8.9375 L 7.285156 8.9375 C 9.03125 8.9375 10.476562 10.179688 10.6875 11.78125 Z M 6 6.5 C 7.894531 6.5 9.429688 5.042969 9.429688 3.25 C 9.429688 1.457031 7.894531 0 6 0 C 4.105469 0 2.570312 1.457031 2.570312 3.25 C 2.570312 5.046875 4.105469 6.5 6 6.5 Z M 6 1.21875 C 7.179688 1.21875 8.144531 2.128906 8.144531 3.25 C 8.144531 4.371094 7.179688 5.28125 6 5.28125 C 4.820312 5.28125 3.855469 4.371094 3.855469 3.25 C 3.855469 2.128906 4.820312 1.21875 6 1.21875 Z M 6 1.21875 "/>
</g>
</svg>

<svg xmlns="http://www.w3.org/2000/svg" width="12" height="14" viewBox="0 0 12 13"><path d="M7.285 7.719h-2.57c-2.606 0-4.715 2-4.715 4.468 0 .45.383.813.855.813h10.29c.472 0 .855-.363.855-.813C12 9.72 9.89 7.72 7.285 7.72zM1.312 11.78c.211-1.601 1.657-2.844 3.403-2.844h2.57c1.746 0 3.192 1.243 3.402 2.844zM6 6.5c1.895 0 3.43-1.457 3.43-3.25S7.895 0 6 0C4.105 0 2.57 1.457 2.57 3.25 2.57 5.047 4.105 6.5 6 6.5zm0-5.281c1.18 0 2.145.91 2.145 2.031S7.18 5.281 6 5.281c-1.18 0-2.145-.91-2.145-2.031S4.82 1.219 6 1.219zm0 0"/></svg>
